icons/refresh.svg

<svg xmlns="http://www.w3.org/2000/svg" width="24" height="24" viewBox="0 0 24 24">
  <path d="M20,8 L19.9999419,8.02027272 C19.9995153,8.04037188 19.9984832,8.06042912 19.996853,8.08041651 L20,8 C20,8.04712923 19.9967397,8.09349698 19.9904324,8.13889001 C19.9886506,8.15099722 19.9866663,8.16341485 19.9844506,8.17578726 C19.9800219,8.20157223 19.9745071,8.22681907 19.9680591,8.25169005 C19.9652259,8.26160947 19.9625478,8.27129922 19.9597249,8.28094729 C19.9529,8.30523308 19.9448945,8.32917492 19.9360279,8.35269457 C19.9345692,8.35588997 19.9332001,8.35947118 19.9318103,8.36304486 L19.9205624,8.39125474 L19.9205624,8.39125474 L19.8983588,8.43977467 C19.8966812,8.44319528 19.8949846,8.44660491 19.8932691,8.45000341 C19.884901,8.46644704 19.8758619,8.48324677 19.8663338,8.49979818 C19.8574551,8.51514292 19.8483881,8.5299095 19.8389552,8.54441616 C19.8271729,8.56277931 19.8146947,8.58072614 19.8016003,8.59828799 C19.7924345,8.61022362 19.7831277,8.62210529 19.7735624,8.63376679 C19.7633931,8.64655418 19.7529618,8.65867427 19.7422135,8.67056572 C19.7268774,8.68714503 19.7110602,8.70349662 19.6947056,8.71929554 C19.6913965,8.72280862 19.6883916,8.72566638 19.6853663,8.72850764 L19.6652928,8.74659618 L19.6652928,8.74659618 L19.625449,8.78031123 C19.6209588,8.78391493 19.6164368,8.78748067 19.6118836,8.79100797 C19.5981434,8.80168269 19.5845947,8.81159251 19.570736,8.82120137 L19.5710875,8.82099646 L19.5360882,8.84431203 C19.5283413,8.8492411 19.5205221,8.85406648 19.5126323,8.85878623 C19.5083426,8.86116926 19.5041833,8.86361016 19.5,8.8660254 L19.4726054,8.88149555 C19.4542123,8.89137751 19.4354743,8.90070062 19.4164142,8.90944215 L19.3956393,8.91850958 L19.3956393,8.91850958 L19.3747515,8.92741093 C19.3647165,8.93146982 19.3546007,8.93537057 19.344407,8.93911009 C19.333603,8.94307351 19.3227116,8.94685582 19.3117364,8.95045332 C19.2937048,8.95630706 19.2760166,8.96157506 19.258259,8.96633283 C19.2425079,8.97054008 19.2260772,8.974486 19.2094945,8.97802086 C19.1877576,8.98273584 19.1663999,8.9865723 19.1450031,8.98970073 C19.1259854,8.99232975 19.1066055,8.99457702 19.087065,8.99626233 C19.0809461,8.99697371 19.0746347,8.99746152 19.0683234,8.99788892 L19.0502735,8.99875825 C19.0336196,8.99958283 19.0168585,9 19,9 L14,9 C13.4477153,9 13,8.55228475 13,8 C13,7.44771525 13.4477153,7 14,7 L16.9666815,6.99904199 C14.7641552,4.85526417 11.2874384,4.32849385 8.5,5.93782217 C5.15195164,7.8708188 4.00482555,12.1519516 5.93782217,15.5 C7.8708188,18.8480484 12.1519516,19.9951745 15.5,18.0621778 C17.6578238,16.8163577 18.9773553,14.4721294 19.0000418,11.9908573 C19.0050912,11.4385956 19.456881,10.9949924 20.0091427,11.0000418 C20.5614044,11.0050912 21.0050076,11.456881 20.9999582,12.0091427 C20.9709033,15.1869405 19.2814497,18.1883579 16.5,19.7942286 C12.1953664,22.27951 6.69105274,20.8046336 4.20577137,16.5 C1.72048999,12.1953664 3.19536639,6.69105274 7.5,4.20577137 C10.9305063,2.22516761 15.164125,2.76034209 18.0004586,5.23233784 L18,3 C18,2.44771525 18.4477153,2 19,2 C19.5522847,2 20,2.44771525 20,3 L20,8 L20,8 Z"/>
</svg>

<svg xmlns="http://www.w3.org/2000/svg" viewBox="0 0 24 24">
  <path d="M20 8v.02a1 1 0 0 1 0 .06V8a1 1 0 0 1-.03.25l-.01.03-.02.07v.01l-.02.03-.02.05a1 1 0 0 1-.21.29l-.02.02-.04.03a1 1 0 0 1-.06.04l-.03.02a1 1 0 0 1-.03.02h-.01l-.03.02a1 1 0 0 1-.05.03h-.02l-.03.02a1 1 0 0 1-.3.07H14a1 1 0 0 1 0-2h2.97A7.1 7.1 0 0 0 8.5 5.94 7 7 0 1 0 19 11.99a1 1 0 1 1 2 .02A9 9 0 1 1 7.5 4.2 9.1 9.1 0 0 1 18 5.23V3a1 1 0 0 1 2 0v5z"/>
</svg>
